X:31
T:Three Jolly Sheepskins
T:Three Jollies
M:4/4
L:1/8
Q:160
Z:Brian Martin
K:G
D|"$"GABc dedB|cdcA BcBA|GABc defg|1ecAF G3:|2ecAF G4|]!
A2D2A2D2|c2c2BcBG|A2D2A2D2|1ccBA G4:|2ccBA"             D.S." G2BA||
